images/6518332.svg

<?xml version="1.0" encoding="UTF-8"?>
<svg xmlns="http://www.w3.org/2000/svg" xmlns:xlink="http://www.w3.org/1999/xlink" width="300pt" height="300pt" viewBox="0 0 300 300" version="1.1">
<defs>
<g>
<symbol overflow="visible" id="glyph0-0">
<path style="stroke:none;" d="M 0.453125 1.59375 L 0.453125 -6.34375 L 4.953125 -6.34375 L 4.953125 1.59375 Z M 0.953125 1.09375 L 4.453125 1.09375 L 4.453125 -5.84375 L 0.953125 -5.84375 Z M 0.953125 1.09375 "/>
</symbol>
<symbol overflow="visible" id="glyph0-1">
<path style="stroke:none;" d="M 0.890625 -6.5625 L 2.078125 -6.5625 L 4.984375 -1.078125 L 4.984375 -6.5625 L 5.84375 -6.5625 L 5.84375 0 L 4.65625 0 L 1.75 -5.484375 L 1.75 0 L 0.890625 0 Z M 0.890625 -6.5625 "/>
</symbol>
<symbol overflow="visible" id="glyph0-2">
<path style="stroke:none;" d="M 3.546875 -5.953125 C 2.898438 -5.953125 2.382812 -5.710938 2 -5.234375 C 1.625 -4.753906 1.4375 -4.101562 1.4375 -3.28125 C 1.4375 -2.445312 1.625 -1.789062 2 -1.3125 C 2.382812 -0.832031 2.898438 -0.59375 3.546875 -0.59375 C 4.191406 -0.59375 4.703125 -0.832031 5.078125 -1.3125 C 5.453125 -1.789062 5.640625 -2.445312 5.640625 -3.28125 C 5.640625 -4.101562 5.453125 -4.753906 5.078125 -5.234375 C 4.703125 -5.710938 4.191406 -5.953125 3.546875 -5.953125 Z M 3.546875 -6.6875 C 4.460938 -6.6875 5.195312 -6.375 5.75 -5.75 C 6.300781 -5.132812 6.578125 -4.3125 6.578125 -3.28125 C 6.578125 -2.238281 6.300781 -1.410156 5.75 -0.796875 C 5.195312 -0.179688 4.460938 0.125 3.546875 0.125 C 2.617188 0.125 1.878906 -0.179688 1.328125 -0.796875 C 0.773438 -1.410156 0.5 -2.238281 0.5 -3.28125 C 0.5 -4.3125 0.773438 -5.132812 1.328125 -5.75 C 1.878906 -6.375 2.617188 -6.6875 3.546875 -6.6875 Z M 3.546875 -6.6875 "/>
</symbol>
</g>
</defs>
<g id="surface55029">
<rect x="0" y="0" width="300" height="300" style="fill:rgb(100%,100%,100%);fill-opacity:1;stroke:none;"/>
<path style="fill:none;stroke-width:1.2;stroke-linecap:butt;stroke-linejoin:miter;stroke:rgb(0%,0%,0%);stroke-opacity:1;stroke-miterlimit:10;" d="M 264.75 135.765625 L 243.53125 147.867188 "/>
<path style="fill:none;stroke-width:1.2;stroke-linecap:butt;stroke-linejoin:miter;stroke:rgb(0%,0%,0%);stroke-opacity:1;stroke-miterlimit:10;" d="M 243.53125 147.867188 L 222.445312 135.542969 "/>
<path style="fill:none;stroke-width:1.2;stroke-linecap:butt;stroke-linejoin:miter;stroke:rgb(0%,0%,0%);stroke-opacity:1;stroke-miterlimit:10;" d="M 238.523438 151.597656 L 221.652344 141.734375 "/>
<path style="fill:none;stroke-width:1.2;stroke-linecap:butt;stroke-linejoin:miter;stroke:rgb(0%,0%,0%);stroke-opacity:1;stroke-miterlimit:10;" d="M 243.402344 172.292969 L 243.53125 147.867188 "/>
<path style="fill:none;stroke-width:1.2;stroke-linecap:butt;stroke-linejoin:miter;stroke:rgb(0%,0%,0%);stroke-opacity:1;stroke-miterlimit:10;" d="M 222.445312 135.542969 L 201.226562 147.640625 "/>
<path style="fill:none;stroke-width:1.2;stroke-linecap:butt;stroke-linejoin:miter;stroke:rgb(0%,0%,0%);stroke-opacity:1;stroke-miterlimit:10;" d="M 201.226562 147.640625 L 201.097656 172.066406 "/>
<path style="fill:none;stroke-width:1.2;stroke-linecap:butt;stroke-linejoin:miter;stroke:rgb(0%,0%,0%);stroke-opacity:1;stroke-miterlimit:10;" d="M 195.46875 150.054688 L 195.363281 169.59375 "/>
<path style="fill:none;stroke-width:1.2;stroke-linecap:butt;stroke-linejoin:miter;stroke:rgb(0%,0%,100%);stroke-opacity:1;stroke-miterlimit:10;" d="M 182.210938 132.3125 L 191.71875 139.976562 "/>
<path style="fill:none;stroke-width:1.2;stroke-linecap:butt;stroke-linejoin:miter;stroke:rgb(0%,0%,0%);stroke-opacity:1;stroke-miterlimit:10;" d="M 191.71875 139.976562 L 201.226562 147.640625 "/>
<path style="fill:none;stroke-width:1.2;stroke-linecap:butt;stroke-linejoin:miter;stroke:rgb(0%,0%,0%);stroke-opacity:1;stroke-miterlimit:10;" d="M 201.097656 172.066406 L 181.921875 187.195312 "/>
<path style="fill:none;stroke-width:1.2;stroke-linecap:butt;stroke-linejoin:miter;stroke:rgb(0%,0%,0%);stroke-opacity:1;stroke-miterlimit:10;" d="M 201.097656 172.066406 L 211.640625 178.230469 "/>
<path style="fill:none;stroke-width:1.2;stroke-linecap:butt;stroke-linejoin:miter;stroke:rgb(0%,0%,100%);stroke-opacity:1;stroke-miterlimit:10;" d="M 211.640625 178.230469 L 222.183594 184.390625 "/>
<path style="fill:none;stroke-width:1.2;stroke-linecap:butt;stroke-linejoin:miter;stroke:rgb(0%,0%,0%);stroke-opacity:1;stroke-miterlimit:10;" d="M 181.921875 187.195312 L 158.136719 181.632812 "/>
<path style="fill:none;stroke-width:1.2;stroke-linecap:butt;stroke-linejoin:miter;stroke:rgb(0%,0%,0%);stroke-opacity:1;stroke-miterlimit:10;" d="M 158.136719 181.632812 L 147.65625 159.570312 "/>
<path style="fill:none;stroke-width:1.2;stroke-linecap:butt;stroke-linejoin:miter;stroke:rgb(0%,0%,0%);stroke-opacity:1;stroke-miterlimit:10;" d="M 147.65625 159.570312 L 158.371094 137.621094 "/>
<path style="fill:none;stroke-width:1.2;stroke-linecap:butt;stroke-linejoin:miter;stroke:rgb(0%,0%,0%);stroke-opacity:1;stroke-miterlimit:10;" d="M 158.371094 137.621094 L 170.292969 134.964844 "/>
<path style="fill:none;stroke-width:1.2;stroke-linecap:butt;stroke-linejoin:miter;stroke:rgb(0%,0%,100%);stroke-opacity:1;stroke-miterlimit:10;" d="M 170.292969 134.964844 L 182.210938 132.3125 "/>
<path style="fill:none;stroke-width:1.2;stroke-linecap:butt;stroke-linejoin:miter;stroke:rgb(0%,0%,100%);stroke-opacity:1;stroke-miterlimit:10;" d="M 182.210938 132.3125 L 184.992188 120.417969 "/>
<path style="fill:none;stroke-width:1.2;stroke-linecap:butt;stroke-linejoin:miter;stroke:rgb(0%,0%,0%);stroke-opacity:1;stroke-miterlimit:10;" d="M 184.992188 120.417969 L 187.773438 108.527344 "/>
<path style=" stroke:none;fill-rule:nonzero;fill:rgb(100%,100%,100%);fill-opacity:1;" d="M 179.210938 126.8125 L 186.210938 126.8125 L 186.210938 137.8125 L 179.210938 137.8125 Z M 179.210938 126.8125 "/>
<g style="fill:rgb(0%,0%,100%);fill-opacity:1;">
  <use xlink:href="#glyph0-1" x="179.210938" y="135.475586"/>
</g>
<path style=" stroke:none;fill-rule:nonzero;fill:rgb(0%,0%,0%);fill-opacity:1;" d="M 169.957031 91.820312 L 184.824219 111.671875 L 190.722656 105.382812 Z M 169.957031 91.820312 "/>
<path style="fill:none;stroke-width:1.2;stroke-linecap:butt;stroke-linejoin:miter;stroke:rgb(0%,0%,0%);stroke-opacity:1;stroke-miterlimit:10;" d="M 169.957031 91.820312 L 175.519531 68.035156 "/>
<path style="fill:none;stroke-width:1.2;stroke-linecap:butt;stroke-linejoin:miter;stroke:rgb(0%,0%,0%);stroke-opacity:1;stroke-miterlimit:10;" d="M 169.957031 91.820312 L 158.269531 95.355469 "/>
<path style="fill:none;stroke-width:1.2;stroke-linecap:butt;stroke-linejoin:miter;stroke:rgb(100%,0%,0%);stroke-opacity:1;stroke-miterlimit:10;" d="M 158.269531 95.355469 L 146.578125 98.894531 "/>
<path style="fill:none;stroke-width:1.2;stroke-linecap:butt;stroke-linejoin:miter;stroke:rgb(100%,0%,0%);stroke-opacity:1;stroke-miterlimit:10;" d="M 146.578125 98.894531 L 137.671875 90.539062 "/>
<path style="fill:none;stroke-width:1.2;stroke-linecap:butt;stroke-linejoin:miter;stroke:rgb(0%,0%,100%);stroke-opacity:1;stroke-miterlimit:10;" d="M 137.671875 90.539062 L 128.761719 82.1875 "/>
<path style=" stroke:none;fill-rule:nonzero;fill:rgb(100%,100%,100%);fill-opacity:1;" d="M 142.578125 93.394531 L 150.578125 93.394531 L 150.578125 104.394531 L 142.578125 104.394531 Z M 142.578125 93.394531 "/>
<g style="fill:rgb(100%,0%,0%);fill-opacity:1;">
  <use xlink:href="#glyph0-2" x="142.578125" y="102.057617"/>
</g>
<path style="fill:none;stroke-width:1.2;stroke-linecap:butt;stroke-linejoin:miter;stroke:rgb(0%,0%,100%);stroke-opacity:1;stroke-miterlimit:10;" d="M 128.761719 82.1875 L 117.074219 85.722656 "/>
<path style="fill:none;stroke-width:1.2;stroke-linecap:butt;stroke-linejoin:miter;stroke:rgb(0%,0%,0%);stroke-opacity:1;stroke-miterlimit:10;" d="M 117.074219 85.722656 L 105.382812 89.261719 "/>
<path style="fill:none;stroke-width:1.2;stroke-linecap:butt;stroke-linejoin:miter;stroke:rgb(0%,0%,100%);stroke-opacity:1;stroke-miterlimit:10;" d="M 124.757812 77.394531 L 115.410156 80.222656 "/>
<path style="fill:none;stroke-width:1.2;stroke-linecap:butt;stroke-linejoin:miter;stroke:rgb(0%,0%,0%);stroke-opacity:1;stroke-miterlimit:10;" d="M 115.410156 80.222656 L 106.058594 83.054688 "/>
<path style=" stroke:none;fill-rule:nonzero;fill:rgb(100%,100%,100%);fill-opacity:1;" d="M 125.761719 76.6875 L 132.761719 76.6875 L 132.761719 87.6875 L 125.761719 87.6875 Z M 125.761719 76.6875 "/>
<g style="fill:rgb(0%,0%,100%);fill-opacity:1;">
  <use xlink:href="#glyph0-1" x="125.761719" y="85.350586"/>
</g>
<path style=" stroke:none;fill-rule:nonzero;fill:rgb(0%,0%,0%);fill-opacity:1;" d="M 99.824219 113.046875 L 109.582031 90.242188 L 101.1875 88.28125 Z M 99.824219 113.046875 "/>
<path style="fill:none;stroke-width:1.2;stroke-linecap:butt;stroke-linejoin:miter;stroke:rgb(0%,0%,0%);stroke-opacity:1;stroke-miterlimit:10;" d="M 99.824219 113.046875 L 117.640625 129.753906 "/>
<path style="fill:none;stroke-width:1.2;stroke-linecap:butt;stroke-linejoin:miter;stroke:rgb(0%,0%,0%);stroke-opacity:1;stroke-miterlimit:10;" d="M 99.824219 113.046875 L 76.445312 120.121094 "/>
<path style="fill:none;stroke-width:1;stroke-linecap:butt;stroke-linejoin:miter;stroke:rgb(0%,0%,0%);stroke-opacity:1;stroke-miterlimit:10;" d="M 76.445312 120.121094 L 76.445312 120.121094 M 74.644531 117.71875 L 73.933594 118.480469 M 72.847656 115.320312 L 71.421875 116.839844 M 71.050781 112.917969 L 68.910156 115.199219 M 69.25 110.515625 L 66.398438 113.558594 M 67.453125 108.113281 L 63.886719 111.917969 M 65.65625 105.714844 L 61.375 110.277344 M 63.855469 103.3125 L 58.863281 108.636719 M 62.058594 100.910156 L 56.351562 106.996094 M 61.578125 100.269531 L 55.679688 106.558594 "/>
<path style="fill:none;stroke-width:1.2;stroke-linecap:butt;stroke-linejoin:miter;stroke:rgb(0%,0%,0%);stroke-opacity:1;stroke-miterlimit:10;" d="M 76.445312 120.121094 L 73.664062 132.011719 "/>
<path style="fill:none;stroke-width:1.2;stroke-linecap:butt;stroke-linejoin:miter;stroke:rgb(100%,0%,0%);stroke-opacity:1;stroke-miterlimit:10;" d="M 73.664062 132.011719 L 70.882812 143.90625 "/>
<path style="fill:none;stroke-width:1.2;stroke-linecap:butt;stroke-linejoin:miter;stroke:rgb(0%,0%,0%);stroke-opacity:1;stroke-miterlimit:10;" d="M 58.628906 103.414062 L 35.25 110.488281 "/>
<path style="fill:none;stroke-width:1.2;stroke-linecap:butt;stroke-linejoin:miter;stroke:rgb(0%,0%,0%);stroke-opacity:1;stroke-miterlimit:10;" d="M 58.628906 103.414062 L 64.191406 79.628906 "/>
<path style="fill:none;stroke-width:1.2;stroke-linecap:butt;stroke-linejoin:miter;stroke:rgb(100%,0%,0%);stroke-opacity:1;stroke-miterlimit:10;" d="M 70.882812 143.90625 L 79.792969 152.257812 "/>
<path style="fill:none;stroke-width:1.2;stroke-linecap:butt;stroke-linejoin:miter;stroke:rgb(0%,0%,0%);stroke-opacity:1;stroke-miterlimit:10;" d="M 79.792969 152.257812 L 88.699219 160.613281 "/>
<path style=" stroke:none;fill-rule:nonzero;fill:rgb(100%,100%,100%);fill-opacity:1;" d="M 66.882812 138.40625 L 74.882812 138.40625 L 74.882812 149.40625 L 66.882812 149.40625 Z M 66.882812 138.40625 "/>
<g style="fill:rgb(100%,0%,0%);fill-opacity:1;">
  <use xlink:href="#glyph0-2" x="66.882812" y="147.069336"/>
</g>
<path style="fill:none;stroke-width:1.2;stroke-linecap:butt;stroke-linejoin:miter;stroke:rgb(0%,0%,0%);stroke-opacity:1;stroke-miterlimit:10;" d="M 88.699219 160.613281 L 83.136719 184.398438 "/>
<path style="fill:none;stroke-width:1.2;stroke-linecap:butt;stroke-linejoin:miter;stroke:rgb(0%,0%,0%);stroke-opacity:1;stroke-miterlimit:10;" d="M 83.136719 184.398438 L 100.953125 201.105469 "/>
<path style="fill:none;stroke-width:1.2;stroke-linecap:butt;stroke-linejoin:miter;stroke:rgb(0%,0%,0%);stroke-opacity:1;stroke-miterlimit:10;" d="M 80.988281 190.257812 L 95.242188 203.625 "/>
<path style="fill:none;stroke-width:1.2;stroke-linecap:butt;stroke-linejoin:miter;stroke:rgb(0%,0%,0%);stroke-opacity:1;stroke-miterlimit:10;" d="M 59.761719 191.472656 L 83.136719 184.398438 "/>
<path style="fill:none;stroke-width:1.2;stroke-linecap:butt;stroke-linejoin:miter;stroke:rgb(0%,0%,0%);stroke-opacity:1;stroke-miterlimit:10;" d="M 100.953125 201.105469 L 95.394531 224.890625 "/>
<path style="fill:none;stroke-width:1.2;stroke-linecap:butt;stroke-linejoin:miter;stroke:rgb(0%,0%,0%);stroke-opacity:1;stroke-miterlimit:10;" d="M 95.394531 224.890625 L 72.015625 231.964844 "/>
<path style="fill:none;stroke-width:1.2;stroke-linecap:butt;stroke-linejoin:miter;stroke:rgb(0%,0%,0%);stroke-opacity:1;stroke-miterlimit:10;" d="M 91.390625 220.09375 L 72.6875 225.757812 "/>
<path style="fill:none;stroke-width:1.2;stroke-linecap:butt;stroke-linejoin:miter;stroke:rgb(0%,0%,0%);stroke-opacity:1;stroke-miterlimit:10;" d="M 72.015625 231.964844 L 54.199219 215.257812 "/>
<path style="fill:none;stroke-width:1.2;stroke-linecap:butt;stroke-linejoin:miter;stroke:rgb(0%,0%,0%);stroke-opacity:1;stroke-miterlimit:10;" d="M 54.199219 215.257812 L 59.761719 191.472656 "/>
<path style="fill:none;stroke-width:1.2;stroke-linecap:butt;stroke-linejoin:miter;stroke:rgb(0%,0%,0%);stroke-opacity:1;stroke-miterlimit:10;" d="M 60.351562 214.1875 L 64.800781 195.160156 "/>
<path style="fill:none;stroke-width:1.2;stroke-linecap:butt;stroke-linejoin:miter;stroke:rgb(0%,0%,100%);stroke-opacity:1;stroke-miterlimit:10;" d="M 222.183594 184.390625 L 232.792969 178.339844 "/>
<path style="fill:none;stroke-width:1.2;stroke-linecap:butt;stroke-linejoin:miter;stroke:rgb(0%,0%,0%);stroke-opacity:1;stroke-miterlimit:10;" d="M 232.792969 178.339844 L 243.402344 172.292969 "/>
<path style="fill:none;stroke-width:1.2;stroke-linecap:butt;stroke-linejoin:miter;stroke:rgb(0%,0%,100%);stroke-opacity:1;stroke-miterlimit:10;" d="M 221.460938 178.1875 L 229.945312 173.347656 "/>
<path style="fill:none;stroke-width:1.2;stroke-linecap:butt;stroke-linejoin:miter;stroke:rgb(0%,0%,0%);stroke-opacity:1;stroke-miterlimit:10;" d="M 229.945312 173.347656 L 238.433594 168.507812 "/>
<path style=" stroke:none;fill-rule:nonzero;fill:rgb(100%,100%,100%);fill-opacity:1;" d="M 219.183594 178.890625 L 226.183594 178.890625 L 226.183594 189.890625 L 219.183594 189.890625 Z M 219.183594 178.890625 "/>
<g style="fill:rgb(0%,0%,100%);fill-opacity:1;">
  <use xlink:href="#glyph0-1" x="219.183594" y="187.553711"/>
</g>
<path style="fill:none;stroke-width:1.2;stroke-linecap:butt;stroke-linejoin:miter;stroke:rgb(0%,0%,0%);stroke-opacity:1;stroke-miterlimit:10;" d="M 243.402344 172.292969 L 264.492188 184.617188 "/>
</g>
</svg>

<svg xmlns="http://www.w3.org/2000/svg" xmlns:xlink="http://www.w3.org/1999/xlink" width="300pt" height="300pt" viewBox="0 0 300 300"><defs><symbol overflow="visible"><path d="M.453 1.594v-7.938h4.5v7.938zm.5-.5h3.5v-6.938h-3.5zm0 0"/></symbol><symbol overflow="visible" id="a"><path d="M.89-6.563H2.08l2.906 5.485v-5.484h.86V0H4.656L1.75-5.484V0H.89zm0 0"/></symbol><symbol overflow="visible" id="b"><path d="M3.547-5.953c-.65 0-1.164.242-1.547.72-.375.48-.563 1.13-.563 1.952 0 .835.188 1.49.563 1.967.383.48.898.72 1.547.72.644 0 1.156-.24 1.53-.72.376-.476.564-1.132.564-1.968 0-.822-.187-1.474-.562-1.954-.375-.477-.887-.72-1.53-.72zm0-.734c.914 0 1.648.312 2.203.937.55.617.828 1.438.828 2.47 0 1.042-.277 1.87-.828 2.483-.555.617-1.29.922-2.203.922-.93 0-1.668-.305-2.22-.922C.774-1.41.5-2.237.5-3.28c0-1.033.273-1.853.828-2.47.55-.625 1.29-.938 2.22-.938zm0 0"/></symbol></defs><g><path fill="#fff" d="M0 0h300v300H0z"/><path d="M264.75 135.766l-21.22 12.1M243.53 147.867l-21.085-12.324M238.523 151.598l-16.87-9.864M243.402 172.293l.13-24.426M222.445 135.543l-21.218 12.098M201.227 147.64l-.13 24.426M195.47 150.055l-.107 19.54" stroke-width="1.2" stroke="#000" stroke-miterlimit="10" fill="none"/><path d="M182.21 132.313l9.51 7.664" stroke-width="1.2" stroke="#00f" stroke-miterlimit="10" fill="none"/><path d="M191.72 139.977l9.507 7.664M201.098 172.066l-19.176 15.13M201.098 172.066l10.543 6.164" stroke-width="1.2" stroke="#000" stroke-miterlimit="10" fill="none"/><path d="M211.64 178.23l10.544 6.16" stroke-width="1.2" stroke="#00f" stroke-miterlimit="10" fill="none"/><path d="M181.922 187.195l-23.785-5.562M158.137 181.633l-10.48-22.063M147.656 159.57l10.715-21.95M158.37 137.62l11.923-2.655" stroke-width="1.2" stroke="#000" stroke-miterlimit="10" fill="none"/><path d="M170.293 134.965l11.918-2.653M182.21 132.313l2.782-11.895" stroke-width="1.2" stroke="#00f" stroke-miterlimit="10" fill="none"/><path d="M184.992 120.418l2.78-11.89" stroke-width="1.2" stroke="#000" stroke-miterlimit="10" fill="none"/><path d="M179.21 126.813h7v11h-7zm0 0" fill="#fff"/><use xlink:href="#a" x="179.211" y="135.476" fill="#00f"/><path d="M169.957 91.82l14.867 19.852 5.9-6.29zm0 0"/><path d="M169.957 91.82l5.563-23.785M169.957 91.82l-11.687 3.535" stroke-width="1.2" stroke="#000" stroke-miterlimit="10" fill="none"/><path d="M158.27 95.355l-11.692 3.54M146.578 98.895l-8.906-8.356" stroke-width="1.2" stroke="#f00" stroke-miterlimit="10" fill="none"/><path d="M137.672 90.54l-8.91-8.353" stroke-width="1.2" stroke="#00f" stroke-miterlimit="10" fill="none"/><path d="M142.578 93.395h8v11h-8zm0 0" fill="#fff"/><use xlink:href="#b" x="142.578" y="102.058" fill="#f00"/><path d="M128.762 82.188l-11.688 3.535" stroke-width="1.2" stroke="#00f" stroke-miterlimit="10" fill="none"/><path d="M117.074 85.723l-11.69 3.54" stroke-width="1.2" stroke="#000" stroke-miterlimit="10" fill="none"/><path d="M124.758 77.395l-9.348 2.828" stroke-width="1.2" stroke="#00f" stroke-miterlimit="10" fill="none"/><path d="M115.41 80.223l-9.35 2.832" stroke-width="1.2" stroke="#000" stroke-miterlimit="10" fill="none"/><path d="M125.762 76.688h7v11h-7zm0 0" fill="#fff"/><use xlink:href="#a" x="125.762" y="85.351" fill="#00f"/><path d="M99.824 113.047l9.758-22.805-8.394-1.96zm0 0"/><path d="M99.824 113.047l17.817 16.707M99.824 113.047l-23.38 7.074" stroke-width="1.2" stroke="#000" stroke-miterlimit="10" fill="none"/><path d="M76.445 120.12m-1.8-2.4l-.71.76m-1.087-3.16l-1.426 1.52m-.37-3.922l-2.142 2.28m.34-4.682l-2.852 3.043m1.055-5.447l-3.566 3.805m1.77-6.203l-4.282 4.562m2.48-6.965l-4.992 5.325m3.196-7.727l-5.708 6.086m5.226-6.726l-5.898 6.29" stroke="#000" stroke-miterlimit="10" fill="none"/><path d="M76.445 120.12l-2.78 11.892" stroke-width="1.2" stroke="#000" stroke-miterlimit="10" fill="none"/><path d="M73.664 132.012l-2.78 11.894" stroke-width="1.2" stroke="#f00" stroke-miterlimit="10" fill="none"/><path d="M58.63 103.414l-23.38 7.074M58.63 103.414l5.56-23.785" stroke-width="1.2" stroke="#000" stroke-miterlimit="10" fill="none"/><path d="M70.883 143.906l8.91 8.352" stroke-width="1.2" stroke="#f00" stroke-miterlimit="10" fill="none"/><path d="M79.793 152.258l8.906 8.355" stroke-width="1.2" stroke="#000" stroke-miterlimit="10" fill="none"/><path d="M66.883 138.406h8v11h-8zm0 0" fill="#fff"/><use xlink:href="#b" x="66.883" y="147.069" fill="#f00"/><path d="M88.7 160.613l-5.563 23.785M83.137 184.398l17.816 16.707M80.988 190.258l14.254 13.367M59.762 191.473l23.375-7.075M100.953 201.105l-5.558 23.786M95.395 224.89l-23.38 7.075M91.39 220.094l-18.703 5.664M72.016 231.965L54.2 215.258M54.2 215.258l5.562-23.785M60.352 214.188l4.45-19.028" stroke-width="1.2" stroke="#000" stroke-miterlimit="10" fill="none"/><path d="M222.184 184.39l10.61-6.05" stroke-width="1.2" stroke="#00f" stroke-miterlimit="10" fill="none"/><path d="M232.793 178.34l10.61-6.047" stroke-width="1.2" stroke="#000" stroke-miterlimit="10" fill="none"/><path d="M221.46 178.188l8.485-4.84" stroke-width="1.2" stroke="#00f" stroke-miterlimit="10" fill="none"/><path d="M229.945 173.348l8.49-4.84" stroke-width="1.2" stroke="#000" stroke-miterlimit="10" fill="none"/><path d="M219.184 178.89h7v11h-7zm0 0" fill="#fff"/><use xlink:href="#a" x="219.184" y="187.554" fill="#00f"/><path d="M243.402 172.293l21.09 12.324" stroke-width="1.2" stroke="#000" stroke-miterlimit="10" fill="none"/></g></svg>
